!!!COM: Saint-Saens, Camille
!!!CNT: Francais
!!!TXO: Francais
!!!OTL: La Cloche
!!!LYR: Victor Hugo
!!!ENC: Jacob Pegg
!!!YOR: Huit melodies : for high voice
!!!YOR: Huntsville, TX: Recital Publications, 1982 
!!!ODT: 1855/
!!NB: Vocal melody and text only encoded.
!!NB: First instance of melodic material only encoded.
**kern	**silbe
*clef G2	*
*k[b-e-a-d-g-	*
*M4/4	*
!!created: 3/2/04 11:27 AM
!!proofed and posted: 3/2/04 12:57 PM
!!edit time: 54 min.
=6	=6
2r	.
{[2a-	{Seu-
=7	=7
4a-]	|
8d-	-le en
8e-	ta
4.f	som-
8f	-bre
=8	=8
[2a-	tour
8a-]}	|}
8r	.
{4a-	{Aux
=9	=9
2b-	fai-
4b-	-tes
8b-	den-
8b-	-te-
=10	=10
2dd-}	-le/s,}
4r	.
{8dd-	{D'ou\
8dd-	ton
=11	=11
2cc	souf-
4.b-	-fle
8b-	des-
=12	=12
2a-	-cend
4.f	Sur
8f	les
=13	=13
2e-	toits
4.d-	e/-
8e-	-bran-
=14	=14
2.f}	-le/s,}
4r	.
!! 15-18 stated prior
=18	=18
2r	.
8r	.
8r	.
{8dd-	{Par
8dd-	ton
=19	=19
2ff	vas-
4.dd-	-te
8dd-	rou-
=20	=20
2a-	-lis
4.e-	si
8f	sou-
=21	=21
4g-	-vent
8f	re-
8g-	-mu-
2a-	-e/-
=22	=22
2a-}	-es,}
4r	.
8r	.
{8a-	{Tu
=23	=23
2b--	dors
4b--	en
8f-	ce
8g-	mo-
=24	=24
4a-	-ment
4d-	dans
[2dd-	l'om-
=25	=25
4dd-]	-bre,
4dd-	et
4dd-	rien
4ee-	ne
=26	=26
4ff-	luit
8ff-	Sous
8ee--	ta
4dd--	vou^-
8cc-	-te
8b--	pro-
=27	=27
4a-	-fonde
8g-	ou\
8f-	som-
4f-	-meil-
8d--	-le
8e--	le
=28	=28
2.f-}	bruit!}
4r	.
=29	=29
1r	.
=30	=30
2r	.
{[2a-	{Oh!
=31	=31
4a-]	|
4a-	tan-
4a-	-dis
8f-	qu'un
8g-	es-
=32	=32
2a-}	-prit}
4r	.
{4d-	{Qui
=33	=33
4f-	jus-
4a-	-qu'a\
4.dd-	toi
8ff-	s'e/-
=34	=34
2ee-	-lan-
4dd-}	-ce,}
4r	.
=35	=35
{4b--	{Si-
8b--	-len-
8f-	-ci-
4.d-	-eux
8f-	aus-
=36	=36
2b--}	-si,}
4r	.
{4e-	{con-
=37	=37
4g-	-tem-
4b--	-ple
4.dd-	ton
8dd-	si-
=38	=38
2dd-	-len-
4a-}	-ce,}
8r	.
{8a-	{Sens~
=39	=39
4.cc-	~tu,
8cc-	par
4.b--	cet
8b--	ins-
=40	=40
2.a-}	-tinct}
4r	.
=41	=41
{4.cc-	{Va-
8cc-	-gue et
4b--	plein
8b--	de
8b--	dou-
=42	=42
2a-}	-ceur,}
4r	.
{8a-	{Qui
8a-	re/-
=43	=43
2ee-	-ve\-
4.ddn	-le
8ddn	tou-
=44	=44
(4ff	-jours
4ee-)	|
4cc	u-
4a-	-ne
=45	=45
2b-	soeur
4.dd-	a\
8cc	la
=46	=46
(2b-	soeur,
8a-)}	|}
8r	.
{8a-	{Qu'a\
8a-	cette
=47	=47
[2b--	heu-
4.b--]	-re ou\
8b--	s'en-
=48	=48
(2b--	-dort
8a-)}	|}
8r	.
{8a-	{la
8a-	soi-
=49	=49
2a-	-re/-
4.gn	-e ex-
8gn	-pi-
=50	=50
2gn	-ran-
4gn}	-te,}
8r	.
{8gn	{Une
=51	=51
[2a-	a^-
8a-]	|
8a-	-me est
8b-	pre\s
8cc	de
=52	=52
2.dd-}	toi,}
4r	.
=53	=53
{4cc	{Non
8dd-	moins
8ee-	que
4.gg-	toi
8gg-	vi-
=54	=54
2gg-	-bran-
4ff}	-te,}
4r	.
=55	=55
{2a-	{Qui
8a-	bien
8a-	sou-
8b-	-vent
8cc	aus-
=56	=56
2dd-}	-si}
4r	.
{8cc	{Jet-
8dd-	-te un
=57	=57
2ee-	bruit
4.gg-	so-
8gg-	-len-
=58	=58
2ff}	-nel,}
4r	.
{8ff	{Et
8ff	se
=59	=59
2ff	plaint
4.gg-	dans
8ff	l'a-
=60	=60
2ee-	-mour
4.b-	Com-
8dd-	-me
=61	=61
(4ff	toi
4ee-)	|
4ee-	dans
4a-	le
=62	=62
[1aa-	ciel!
=63	=63
1aa-_	|
=64	=64
(4aa-]	|
4gg-)}	|}
{4ff	{Et
4ee-	se
=65	=65
(4dd-	plaint
4b--)	|
4a-	dans
4g-	l'a-
=66	=66
4.f}	-mour}
8r	.
{4.cc	{com-
8b-	-me
=67	=67
2a-}	toi}
2r	.
=68	=68
2r	.
{4.cc	{dans
8b-	le
=69	=69
2a-}	ciel!}
2r	.
=70	=70
2r	.
{[2ee-	{dans
=71	=71
2ee-]	|
2ff	le
=72	=72
[1ff	ciel!
=73	=73
1ff]}	|}
*-	*-
